content/consul/v1.21.x/img/waypoint/status-degraded.svg

<svg xmlns="http://www.w3.org/2000/svg" width="16" height="14" viewBox="0 0 16 14">
  <path fill="#EAAA32" d="M14.024,14 L14,13.9844444 L1.952,13.9844444 C0.72,13.9844444 -0.056,12.6855556 0.568,11.6511111 L6.6,1.54 C7.216,0.505555556 8.76,0.505555556 9.376,1.54 L15.408,11.6588889 C16.0264,12.7011111 15.256,14 14.024,14 Z M8.792,11.6666667 L8.792,10.1111111 L7.192,10.1111111 L7.192,11.6666667 L8.792,11.6666667 Z M8.792,8.55555556 L8.792,5.44444444 L7.192,5.44444444 L7.192,8.55555556 L8.792,8.55555556 Z"/>
</svg>

<svg xmlns="http://www.w3.org/2000/svg" width="16" height="14" viewBox="0 0 16 14">
  <path fill="#EAAA32" d="M14.024 14 14 13.984H1.952c-1.232 0-2.008-1.298-1.384-2.333L6.6 1.54c.616-1.034 2.16-1.034 2.776 0l6.032 10.119C16.026 12.7 15.256 14 14.024 14m-5.232-2.333V10.11h-1.6v1.556zm0-3.111V5.444h-1.6v3.112z"/>
</svg>
